X: 1399
T: An Spéir Glan
R: reel
M: 4/4
K: Fmajor
"F" F6 D2|C6 FG|A6 GA|"Bb" B6 BA|
"Dm" c8|"Bb" F7 F|"C" FEDE C2 E2|"Bb" D2 F2 G2 F2|
"F" F2 G2 A2 c2|"Bb" B6 FG|"Dm" A7 B|"Bb" BA G2"C" C3 A|
"F" AG F2"Bb" D2 F2|"F" C2 F2"Bb" D2 G2|"Dm" F2 B2"C" A2 E2|"F" F8||

